X: 1481
M: 2/4
L: 1/16
K: Eb
V: 1 nm="Bb BUGLE PRIMO"
K: F
|: (3cde |\
f3ff3f | f3fa3f | .c2.c2 .d2.e2 | .f2ag fede |\
f3ff3f | f3fa3f | c2gf ecde | f4 z2 :|
|: AB |\
caaa a2gf | fddd d2ef | g2gg g2ag | fFGA BAGB |\
caaa a2gf | fddd d2ef | g2gg g2ag | f4 z2 :|
|: c2 |\
c4 A2c2 | cAcf a4 | c'4 g2b2 | a2ba gfed |\
c4 A2c2 | cAcf a4 | c'4 g2ag | f4 z2 :|
|: cB |\
V: 2 nm="Bb BUGLE SECONDO"
K: F
|: z2 |\
|: FG |\
|: A2 |\
|: AG |\
V: 3 nm="TENOR TROMBONE" clef=bass middle=D
K: Eb
|: z2 |\
e3ee3e | e3e e3e | d4 d2f2 | e4 z2 :|
|: z2 |\
e2e2 e4 | e2e2 e4 | d2z2 d2d2 | e4 z4 |\
e2e2 e4 | e2e2 e4 | d2z2 d2d2 | e4 z2 :|
|: z2 |\
e4 e2e2 | e2e2 e4 | e4 d2d2 | e4 z4 |\
e4 e2e2 | e2e2 e4 | e4 d2d2 | e4 z2 :|
|: z2 |\
V: 4 nm="BASS TROMBONE" clef=bass middle=d
K: Eb
|: z2 |\
e3ee3e | e3ee3e | d2_d2 c2=B2 | c2e2g2e2 |\
e3ee3e | e3ee3e | B4 B2B2 | e4 z2 :|
|: z2 |
e2e2 e4 | e2e2 e4 | B2z2 B2B2 | e2e2e2z2 |\
e2e2 e4 | e2e2 e4 | B2z2 B2B2 | e4 z2 :|
|: z2 |\
e4 e2e2 | e2e2 e4 | B4 B2B2 | e4 z4 |\
e4 e2e2 | e2e2 e4 | B4 B2B2 | e4 z2 :|
|: z2 |\
e2e2 e4 | e2e2 e4 | B2f2d2B2 | e2e2e2z2 |\
e2e2 e4 | e2e2 e4 | B2f2d2B2 | e4 z2 :|

